images/antena.svg

<svg width="66" height="70" fill="none" xmlns="http://www.w3.org/2000/svg"><path d="M65.3163 48.3385 46.8468 29.7337l2.0498-10.0964a4.6548 4.6548 0 0 0 1.659.3185h.014c2.6081.0308 4.7473-2.0584 4.7783-4.6665.0309-2.6081-2.0585-4.7473-4.6666-4.7782-2.6081-.0308-4.7473 2.0584-4.7782 4.6665a4.719 4.719 0 0 0 .2729 1.6387l-10.85 1.3242L17.6276.35A1.1664 1.1664 0 0 0 16.804 0a1.1665 1.1665 0 0 0-.8167.3395l-3.3087 3.29c-.4554.4556-.4554 1.194 0 1.6497l1.7804 1.806C7.5616 19.768 9.802 35.474 19.9703 45.7228c.0933.0893.2015.1615.3197.2135a6.7707 6.7707 0 0 0-.1144 1.197v13.5334h-14C2.9556 60.6705.3461 63.28.3423 66.5v2.3333C.3423 69.4776.8647 70 1.5089 70h53.6667c.6443 0 1.1667-.5224 1.1667-1.1667V66.5c-.0038-3.22-2.6133-5.8295-5.8333-5.8333h-14v-5.9979a32.879 32.879 0 0 0 6.6686.7 32.4831 32.4831 0 0 0 15.4-3.9013l1.7897 1.8002c.2171.2215.5135.3475.8237.35a1.1668 1.1668 0 0 0 .8166-.3395l3.3087-3.29c.4554-.4556.4554-1.1941 0-1.6497ZM48.9246 13.6348c.9137-.9088 2.3911-.9047 3.2998.0089.9088.9137.9047 2.3911-.0089 3.2998a2.3335 2.3335 0 0 1-1.646.679h-.007c-1.2886-.0067-2.328-1.0567-2.3213-2.3454a2.3341 2.3341 0 0 1 .6879-1.6423h-.0045Zm-2.7463 7.6662-1.309 6.4435-2.5713-2.5865 3.8803-3.857Zm-1.3253-1.9728-4.2 4.1755-3.2492-3.2667 7.4492-.9088ZM50.509 63c1.933 0 3.5 1.567 3.5 3.5v1.1667H2.6756V66.5c0-1.933 1.567-3.5 3.5-3.5H50.509Zm-16.3334-4.6667v2.3334H22.509v-2.3334h11.6666ZM22.509 56v-8.8667C22.509 44.303 25.1258 42 28.3423 42c3.2165 0 5.8333 2.303 5.8333 5.1333V56H22.509Zm14-3.71v-5.1567c0-4.1171-3.6634-7.4666-8.1667-7.4666a8.3122 8.3122 0 0 0-7.1773 3.9071c-8.8763-9.3489-10.8751-23.2863-4.9845-34.753L56.872 49.7454A30.233 30.233 0 0 1 36.509 52.29Zm24.6948-1.4957L59.56 49.1412 16.7923 6.1157l-1.6508-1.6544 1.6508-1.645L34.15 20.272c.0081 0 .0128.0152.021.021l28.6883 28.8563-1.6555 1.645Z" fill="#212121"/><path d="M28.3528 44.3333h-.0105c-1.933-.0029-3.5023 1.5617-3.5053 3.4948-.0029 1.933 1.5618 3.5023 3.4948 3.5052h.0105c1.933.0029 3.5023-1.5617 3.5052-3.4947.003-1.9331-1.5617-3.5024-3.4947-3.5053Zm.8167 4.3272a1.1671 1.1671 0 0 1-.8272.3395c-.6443-.0034-1.1639-.5284-1.1606-1.1727a1.1666 1.1666 0 0 1 1.1606-1.1606c.6443.0033 1.1639.5283 1.1605 1.1726a1.1672 1.1672 0 0 1-.3438.8212h.0105Z" fill="#2196F3"/></svg>

<svg width="66" height="70" viewBox="0 0 66 70" fill="none" xmlns="http://www.w3.org/2000/svg">
<path d="M65.3163 48.3385L46.8468 29.7337L48.8966 19.6373C49.4256 19.8438 49.9879 19.9517 50.5556 19.9558H50.5696C53.1777 19.9866 55.3169 17.8974 55.3479 15.2893C55.3788 12.6812 53.2894 10.542 50.6813 10.5111C48.0732 10.4803 45.934 12.5695 45.9031 15.1776C45.8965 15.7357 45.9888 16.2905 46.176 16.8163L35.326 18.1405L17.6276 0.35C17.4105 0.128479 17.1141 0.00247917 16.804 0C16.4977 0.00160417 16.2044 0.123521 15.9873 0.3395L12.6786 3.6295C12.2232 4.08508 12.2232 4.82358 12.6786 5.27917L14.459 7.08517C7.56162 19.7681 9.80191 35.4741 19.9703 45.7228C20.0636 45.8121 20.1718 45.8843 20.29 45.9363C20.2165 46.3311 20.1781 46.7317 20.1756 47.1333V60.6667H6.17562C2.95562 60.6705 0.346077 63.28 0.342285 66.5V68.8333C0.342285 69.4776 0.86466 70 1.50895 70H55.1756C55.8199 70 56.3423 69.4776 56.3423 68.8333V66.5C56.3385 63.28 53.729 60.6705 50.509 60.6667H36.509V54.6688C38.7021 55.1288 40.9367 55.3633 43.1776 55.3688C48.5548 55.363 53.8464 54.0225 58.5776 51.4675L60.3673 53.2677C60.5844 53.4892 60.8808 53.6152 61.191 53.6177C61.4972 53.6161 61.7905 53.4941 62.0076 53.2782L65.3163 49.9882C65.7717 49.5326 65.7717 48.7941 65.3163 48.3385ZM48.9246 13.6348C49.8383 12.726 51.3157 12.7301 52.2244 13.6437C53.1332 14.5574 53.1291 16.0348 52.2155 16.9435C51.7781 17.3785 51.1864 17.6226 50.5695 17.6225H50.5625C49.2739 17.6158 48.2345 16.5658 48.2412 15.2771C48.2445 14.6602 48.4918 14.0699 48.9291 13.6348H48.9246ZM46.1783 21.301L44.8693 27.7445L42.298 25.158L46.1783 21.301ZM44.853 19.3282L40.653 23.5037L37.4038 20.237L44.853 19.3282ZM50.509 63C52.442 63 54.009 64.567 54.009 66.5V67.6667H2.67562V66.5C2.67562 64.567 4.2426 63 6.17562 63H50.509ZM34.1756 58.3333V60.6667H22.509V58.3333H34.1756ZM22.509 56V47.1333C22.509 44.303 25.1258 42 28.3423 42C31.5588 42 34.1756 44.303 34.1756 47.1333V56H22.509ZM36.509 52.29V47.1333C36.509 43.0162 32.8456 39.6667 28.3423 39.6667C25.4306 39.622 22.7079 41.1041 21.165 43.5738C12.2887 34.2249 10.2899 20.2875 16.1805 8.82073L56.872 49.7455C50.5886 52.9419 43.3857 53.8418 36.509 52.29ZM61.2038 50.7943L59.56 49.1412L16.7923 6.11567L15.1415 4.46133L16.7923 2.81633L34.15 20.272C34.1581 20.272 34.1628 20.2872 34.171 20.293L62.8593 49.1493L61.2038 50.7943Z" fill="#212121"/>
<path d="M28.3528 44.3333H28.3423C26.4093 44.3304 24.84 45.895 24.837 47.8281C24.8341 49.7611 26.3988 51.3304 28.3318 51.3333H28.3423C30.2753 51.3362 31.8446 49.7716 31.8475 47.8386C31.8505 45.9055 30.2858 44.3362 28.3528 44.3333ZM29.1695 48.6605C28.9498 48.8789 28.6522 49.0012 28.3423 49C27.698 48.9966 27.1784 48.4716 27.1817 47.8273C27.1834 47.5189 27.307 47.2237 27.5256 47.0062C27.7428 46.7902 28.036 46.6683 28.3423 46.6667C28.9866 46.67 29.5062 47.195 29.5028 47.8393C29.5012 48.1477 29.3776 48.4429 29.159 48.6605H29.1695Z" fill="#2196F3"/>
</svg>
